X:1
T:Title
%%score { 1 | 2 }
L:1/8
M:4/8
K:Bb
V:1 treble nm="Grand Piano"
V:2 bass 
V:1
 z2 z[Q:1/4=75] [DF] | [DB][DB][DB]F | GGG[=EB] | AGFE | [_DG]2 [=DF][DF] | [DB][DB][DB]F | %6
 GGG[Ge] | dcBA | c2 [DB] z | [DF][DB][DB]>[FA] | [FA] [EG]3 | [=EG][Ec][Ec]>[GB] | [GB] [FA]3 | %13
 [DB]/[DB]/[DB]/[DB]/[DB][Fd] | [EG][EG][GB][Ge] | dcBA |[M:3/8] c2 [DB] |] %17
V:2
 z2 z [B,,B,] | [B,,F,][B,,F,][B,,F,][D,B,] | [E,B,E][E,B,E][E,B,E][C,C] | %3
 [F,CE][F,B,E][F,A,C][F,A,C] | [B,,B,]2 [B,,B,][B,,B,] | [B,,F,][B,,F,][B,,F,][D,B,] | %6
 [E,B,E][E,B,E][E,B,E][E,B,] | [F,B,F][F,A,E][F,B,D][F,C] | [F,E]2 [B,,F,] z | %9
 [B,,B,][B,,F,][B,,F,]>[D,B,] | [E,B,] [E,B,]3 | [C,C][C,G,][C,G,]>[C,C] | [F,C] [F,C]3 | %13
 [B,,B,]/[B,,F,]/[B,,F,]/[B,,F,]/[B,,F,][B,,B,] | [E,B,][E,B,][E,B,][E,B,] | %15
 [F,B,F][F,A,E][F,B,D][F,C] |[M:3/8] [F,E]2 [B,,F,] |] %17

